svg/board.svg

<svg width="24" height="24" viewBox="0 0 24 24" fill="none" xmlns="http://www.w3.org/2000/svg">
<path d="M2 5C2 3.89543 2.89543 3 4 3H20C21.1046 3 22 3.89543 22 5V19C22 20.1046 21.1046 21 20 21H4C2.89543 21 2 20.1046 2 19V5ZM8 5H4V19H8V5ZM10 5V19H14V5H10ZM16 5V19H20V5H16Z" fill="#0D0D0D"/>
</svg>

<svg width="24" height="24" fill="none" xmlns="http://www.w3.org/2000/svg"><path d="M2 5a2 2 0 012-2h16a2 2 0 012 2v14a2 2 0 01-2 2H4a2 2 0 01-2-2V5zm6 0H4v14h4V5zm2 0v14h4V5h-4zm6 0v14h4V5h-4z" fill="#0D0D0D"/></svg>
